assets/Ribbon/Flat/ribbon_flat.svg

<svg width="32" height="32" viewBox="0 0 32 32" fill="none" xmlns="http://www.w3.org/2000/svg">
<path d="M15.995 9.77201L7.45999 5.41331C4.95999 4.14331 2 5.95331 2 8.75331V16.7333C2 19.5333 4.95999 21.3533 7.45999 20.0733L8.14916 19.7214L5.30991 27.0842C5.07991 27.6706 5.68989 28.237 6.25989 27.9787L8.5199 26.965C8.8799 26.806 9.2999 26.965 9.4599 27.3227L10.4499 29.5787C10.6999 30.1551 11.5299 30.1352 11.7599 29.5489L15.9899 18.5709L20.2199 29.5489C20.4499 30.1352 21.2799 30.1551 21.5299 29.5787L22.5199 27.3227C22.6799 26.965 23.0999 26.806 23.4599 26.965L25.7199 27.9787C26.2899 28.237 26.8999 27.6706 26.6699 27.0842L23.8281 19.7149L24.53 20.0733C27.03 21.3533 29.99 19.5333 29.99 16.7333V8.75331C29.99 5.95331 27.03 4.14331 24.53 5.41331L15.995 9.77201Z" fill="#F8312F"/>
<path d="M14.2544 6H17.7456C18.9932 6 20 6.99752 20 8.20957V16.581L24.5399 14.2633C26.8999 13.0633 29.6799 14.6233 29.9699 17.1733C29.6899 19.7233 26.9099 21.2933 24.5399 20.0833L19.8147 17.671C19.4684 18.454 18.6736 19 17.7456 19H14.2544C13.3247 19 12.5287 18.452 12.1834 17.6667L7.44989 20.0833C5.08989 21.2933 2.2999 19.7233 2.0199 17.1733C2.2999 14.6233 5.07989 13.0533 7.44989 14.2633L12 16.5863V8.20957C12 6.9868 13.0068 6 14.2544 6Z" fill="#CA0B4A"/>
</svg>

<svg xmlns="http://www.w3.org/2000/svg" width="32" height="32" fill="none"><path fill="#F8312F" d="M15.995 9.772 7.46 5.413C4.96 4.143 2 5.953 2 8.753v7.98c0 2.8 2.96 4.62 5.46 3.34l.69-.352-2.84 7.363c-.23.587.38 1.153.95.895l2.26-1.014c.36-.159.78 0 .94.358l.99 2.256c.25.576 1.08.556 1.31-.03l4.23-10.978 4.23 10.978c.23.586 1.06.606 1.31.03l.99-2.256c.16-.358.58-.517.94-.358l2.26 1.014c.57.258 1.18-.308.95-.895l-2.842-7.37.702.36c2.5 1.28 5.46-.54 5.46-3.34v-7.98c0-2.8-2.96-4.61-5.46-3.34l-8.535 4.358Z"/><path fill="#CA0B4A" d="M14.254 6h3.492C18.993 6 20 6.998 20 8.21v8.371l4.54-2.318c2.36-1.2 5.14.36 5.43 2.91-.28 2.55-3.06 4.12-5.43 2.91l-4.725-2.412A2.253 2.253 0 0 1 17.745 19h-3.49c-.93 0-1.726-.548-2.072-1.333L7.45 20.083c-2.36 1.21-5.15-.36-5.43-2.91.28-2.55 3.06-4.12 5.43-2.91L12 16.586V8.21C12 6.987 13.007 6 14.254 6Z"/></svg>
